favicon.svg

<svg xmlns="http://www.w3.org/2000/svg" version="1.1" xmlns:xlink="http://www.w3.org/1999/xlink" xmlns:svgjs="http://svgjs.com/svgjs" width="512" height="512"><svg version="1.1" xmlns="http://www.w3.org/2000/svg" viewBox="0 0 512 512" xmlns:xlink="http://www.w3.org/1999/xlink" enable-background="new 0 0 512 512">
  <g>
    <g>
      <g>
        <path d="m410.3,460.2h-308.6c-0.5,0-0.9,0-1.3,0l113.7-184.5c2-3.2 3-6.9 3-10.7v-213.2h77.6v213.2c0,3.8 1,7.5 3,10.7l113.7,184.5c-0.3,0-0.7,0-1.1,0zm40.7-14.2l-115.2-186.8v-186.6c10.3-6.1 16.9-16.2 16.9-27.7 0-19-17.7-33.9-40.2-33.9h-113c-22.5,0-40.2,14.9-40.2,33.9 0,11.5 6.5,21.6 16.9,27.7v186.7l-115.2,186.7c-6.4,10.4-6.7,22.9-0.8,33.5 7.5,13.3 23.4,21.5 41.5,21.5h308.5c18.1,0 34-8.2 41.5-21.5 6-10.6 5.7-23.1-0.7-33.5z"></path>
      </g>
    </g>
  </g>
</svg><style>@media (prefers-color-scheme: light) { :root { filter: none; } }
</style></svg>

<svg width="512" height="512" viewBox="0 0 512 512" fill="none" xmlns="http://www.w3.org/2000/svg">
<path d="M410.3 460.2H101.7C101.2 460.2 100.8 460.2 100.4 460.2L214.1 275.7C216.1 272.5 217.1 268.8 217.1 265V51.8H294.7V265C294.7 268.8 295.7 272.5 297.7 275.7L411.4 460.2C411.1 460.2 410.7 460.2 410.3 460.2V460.2ZM451 446L335.8 259.2V72.6C346.1 66.5 352.7 56.4 352.7 44.9C352.7 25.9 335 11 312.5 11H199.5C177 11 159.3 25.9 159.3 44.9C159.3 56.4 165.8 66.5 176.2 72.6V259.3L61.0002 446C54.6002 456.4 54.3002 468.9 60.2002 479.5C67.7002 492.8 83.6002 501 101.7 501H410.2C428.3 501 444.2 492.8 451.7 479.5C457.7 468.9 457.4 456.4 451 446V446Z" fill="#FF9966"/>
</svg>
